latex_in_markdown/.watch-latex-md-images/b9cb7ff24483892a44f61aa759debee3.svg

<ns0:svg xmlns:ns0="http://www.w3.org/2000/svg" xmlns:ns1="http://www.w3.org/1999/xlink" height="17.1855pt" version="1.1" viewBox="23.686 61.8237 85.0388 17.1855" width="85.0388pt" watch_lated_md:baseline="4.289399999999997" xmlns:watch_lated_md="https://github.com/Quansight/pearu-sandbox/latex_in_markdown/">
<ns0:defs>
<ns0:path d="m11.345 -3.95955c0.292662 0 0.60254 0 0.60254 -0.344309s-0.309878 -0.344309 -0.60254 -0.344309h-9.31355c-0.292662 0 -0.60254 0 -0.60254 0.344309s0.309878 0.344309 0.60254 0.344309h9.31355z" id="g0-0" />
<ns0:path d="m4.83754 -11.5171c0.0172154 -0.0688618 0.0516463 -0.172154 0.0516463 -0.258232c0 -0.172154 -0.172154 -0.172154 -0.206585 -0.172154c-0.0172154 0 -0.636971 0.0516463 -0.946849 0.0860772c-0.292662 0.0172154 -0.550894 0.0516463 -0.860772 0.0688618c-0.413171 0.0344309 -0.533679 0.0516463 -0.533679 0.361524c0 0.172154 0.172154 0.172154 0.344309 0.172154c0.877987 0 0.877987 0.154939 0.877987 0.327093c0 0.0688618 0 0.103293 -0.0860772 0.413171l-2.46181 9.84723c-0.0688618 0.258232 -0.0688618 0.292662 -0.0688618 0.395955c0 0.37874 0.292662 0.447601 0.464817 0.447601c0.482032 0 0.585325 -0.37874 0.723049 -0.912418l0.809126 -3.21929c1.23951 0.137724 1.97978 0.654187 1.97978 1.48053c0 0.103293 0 0.172154 -0.0516463 0.430386c-0.0688618 0.258232 -0.0688618 0.464817 -0.0688618 0.550894c0 0.998496 0.654187 1.6699 1.53217 1.6699c0.79191 0 1.20508 -0.723049 1.3428 -0.964065c0.361524 -0.636971 0.585325 -1.60104 0.585325 -1.6699c0 -0.0860772 -0.0688618 -0.154939 -0.172154 -0.154939c-0.154939 0 -0.172154 0.0688618 -0.241016 0.344309c-0.241016 0.895203 -0.60254 2.10028 -1.48053 2.10028c-0.344309 0 -0.56811 -0.172154 -0.56811 -0.826341c0 -0.327093 0.0688618 -0.705833 0.137724 -0.964065c0.0688618 -0.309878 0.0688618 -0.327093 0.0688618 -0.533679c0 -1.01571 -0.912418 -1.58382 -2.49624 -1.79041c0.619756 -0.37874 1.23951 -1.05014 1.48053 -1.30837c0.98128 -1.10179 1.65268 -1.65268 2.44459 -1.65268c0.395955 0 0.499248 0.103293 0.619756 0.206585c-0.636971 0.0688618 -0.877987 0.516463 -0.877987 0.860772c0 0.413171 0.327093 0.550894 0.56811 0.550894c0.464817 0 0.877987 -0.395955 0.877987 -0.946849c0 -0.499248 -0.395955 -1.01571 -1.17065 -1.01571c-0.946849 0 -1.72154 0.671402 -2.94384 2.04864c-0.172154 0.206585 -0.809126 0.860772 -1.4461 1.10179l1.77319 -7.07555z" id="g1-107" />
<ns0:path d="m5.26792 4.20057c0 -0.0172154 0 -0.0516463 -0.0516463 -0.103293c-0.79191 -0.809126 -2.90941 -3.0127 -2.90941 -8.38392s2.08307 -7.55758 2.92662 -8.41835c0 -0.0172154 0.0344309 -0.0516463 0.0344309 -0.103293s-0.0516463 -0.0860772 -0.120508 -0.0860772c-0.18937 0 -1.65268 1.27394 -2.49624 3.16764c-0.860772 1.91091 -1.10179 3.77018 -1.10179 5.42286c0 1.23951 0.120508 3.3398 1.15343 5.56059c0.826341 1.79041 2.23801 3.04713 2.44459 3.04713c0.0860772 0 0.120508 -0.0344309 0.120508 -0.103293z" id="g2-40" />
<ns0:path d="m4.52766 -4.28664c0 -1.23951 -0.120508 -3.3398 -1.15343 -5.56059c-0.826341 -1.79041 -2.23801 -3.04713 -2.44459 -3.04713c-0.0516463 0 -0.120508 0.0172154 -0.120508 0.103293c0 0.0344309 0.0172154 0.0516463 0.0344309 0.0860772c0.826341 0.860772 2.92662 3.04713 2.92662 8.40114c0 5.37122 -2.08307 7.55758 -2.92662 8.41835c-0.0172154 0.0344309 -0.0344309 0.0516463 -0.0344309 0.0860772c0 0.0860772 0.0688618 0.103293 0.120508 0.103293c0.18937 0 1.65268 -1.27394 2.49624 -3.16764c0.860772 -1.91091 1.10179 -3.77018 1.10179 -5.42286z" id="g2-41" />
<ns0:path d="m2.85776 -0.705833c0 -0.430386 -0.344309 -0.705833 -0.705833 -0.705833c-0.344309 0 -0.705833 0.275447 -0.705833 0.705833s0.344309 0.705833 0.705833 0.705833c0.344309 0 0.705833 -0.275447 0.705833 -0.705833z" id="g2-46" />
<ns0:path d="m7.17884 -2.66839h-0.309878c-0.172154 1.2223 -0.309878 1.42888 -0.37874 1.53217c-0.0860772 0.137724 -1.32559 0.137724 -1.56661 0.137724h-3.30536c0.619756 -0.671402 1.82484 -1.8937 3.28815 -3.30536c1.05014 -0.998496 2.27244 -2.16915 2.27244 -3.87347c0 -2.03142 -1.61825 -3.20207 -3.42587 -3.20207c-1.8937 0 -3.04713 1.6699 -3.04713 3.21929c0 0.671402 0.499248 0.757479 0.705833 0.757479c0.172154 0 0.688618 -0.103293 0.688618 -0.705833c0 -0.533679 -0.447601 -0.688618 -0.688618 -0.688618c-0.103293 0 -0.206585 0.0172154 -0.275447 0.0516463c0.327093 -1.46331 1.32559 -2.18636 2.37573 -2.18636c1.49774 0 2.47902 1.18787 2.47902 2.75447c0 1.49774 -0.877987 2.7889 -1.85927 3.90791l-3.42587 3.87347v0.395955h6.05984l0.413171 -2.66839z" id="g2-50" />
<ns0:path d="m11.0695 -5.52616c0.258232 0 0.516463 0 0.516463 -0.292662c0 -0.309878 -0.292662 -0.309878 -0.585325 -0.309878h-9.62343c-0.292662 0 -0.585325 0 -0.585325 0.309878c0 0.292662 0.258232 0.292662 0.516463 0.292662h9.76115zm-0.0688618 3.06435c0.292662 0 0.585325 0 0.585325 -0.309878c0 -0.292662 -0.258232 -0.292662 -0.516463 -0.292662h-9.76115c-0.258232 0 -0.516463 0 -0.516463 0.292662c0 0.309878 0.292662 0.309878 0.585325 0.309878h9.62343z" id="g2-61" />
<ns0:path d="m2.63396 -11.9475l-2.04864 0.18937v0.447601c1.01571 0 1.17065 0.103293 1.17065 0.929634v9.19305c0 0.654187 -0.0688618 0.740264 -1.17065 0.740264v0.447601c0.413171 -0.0344309 1.17065 -0.0344309 1.60104 -0.0344309c0.447601 0 1.20508 0 1.61825 0.0344309v-0.447601c-1.10179 0 -1.17065 -0.0688618 -1.17065 -0.740264v-10.7597z" id="g2-108" />
<ns0:path d="m7.14441 -5.23349c0 -0.877987 -0.172154 -2.30687 -2.20358 -2.30687c-1.36002 0 -2.06585 1.05014 -2.32408 1.73876h-0.0172154v-1.73876l-2.03142 0.18937v0.447601c1.01571 0 1.17065 0.103293 1.17065 0.929634v4.78589c0 0.654187 -0.0688618 0.740264 -1.17065 0.740264v0.447601c0.413171 -0.0344309 1.17065 -0.0344309 1.61825 -0.0344309s1.2223 0 1.63547 0.0344309v-0.447601c-1.10179 0 -1.17065 -0.0688618 -1.17065 -0.740264v-3.30536c0 -1.58382 0.964065 -2.77169 2.16915 -2.77169c1.27394 0 1.41167 1.13622 1.41167 1.96256v4.11449c0 0.654187 -0.0688618 0.740264 -1.17065 0.740264v0.447601c0.413171 -0.0344309 1.17065 -0.0344309 1.61825 -0.0344309s1.2223 0 1.63547 0.0344309v-0.447601c-1.10179 0 -1.17065 -0.0688618 -1.17065 -0.740264v-4.04563z" id="g2-110" />
</ns0:defs>
<ns0:g id="page1">
<ns0:use x="27.9837" ns1:href="#g1-107" y="74.7198" />
<ns0:use x="42.1106" ns1:href="#g2-61" y="74.7198" />
<ns0:use x="59.2849" ns1:href="#g0-0" y="74.7198" />
<ns0:use x="75.544" ns1:href="#g2-108" y="74.7198" />
<ns0:use x="79.8417" ns1:href="#g2-110" y="74.7198" />
<ns0:use x="88.6364" ns1:href="#g2-40" y="74.7198" />
<ns0:use x="94.7329" ns1:href="#g2-50" y="74.7198" />
<ns0:use x="102.628" ns1:href="#g2-41" y="74.7198" />
</ns0:g>
</ns0:svg>

<ns0:svg xmlns:ns0="http://www.w3.org/2000/svg" xmlns:ns1="http://www.w3.org/1999/xlink" height="17.1855pt" version="1.1" viewBox="23.686 61.8237 85.0388 17.1855" width="85.0388pt" watch_lated_md:baseline="4.289399999999997" xmlns:watch_lated_md="https://github.com/Quansight/pearu-sandbox/latex_in_markdown/">
<ns0:defs>
<ns0:path d="M11.345 -3.95955C11.6376 -3.95955 11.9475 -3.95955 11.9475 -4.30386S11.6376 -4.64817 11.345 -4.64817H2.03142C1.73876 -4.64817 1.42888 -4.64817 1.42888 -4.30386S1.73876 -3.95955 2.03142 -3.95955H11.345Z" id="g0-0" />
<ns0:path d="M4.83754 -11.5171C4.85475 -11.586 4.88919 -11.6893 4.88919 -11.7754C4.88919 -11.9475 4.71703 -11.9475 4.6826 -11.9475C4.66538 -11.9475 4.04563 -11.8959 3.73575 -11.8614C3.44309 -11.8442 3.18486 -11.8098 2.87498 -11.7926C2.46181 -11.7581 2.3413 -11.7409 2.3413 -11.4311C2.3413 -11.2589 2.51345 -11.2589 2.68561 -11.2589C3.5636 -11.2589 3.5636 -11.104 3.5636 -10.9318C3.5636 -10.8629 3.5636 -10.8285 3.47752 -10.5186L1.01571 -0.671402C0.946849 -0.413171 0.946849 -0.37874 0.946849 -0.275447C0.946849 0.103293 1.23951 0.172154 1.41167 0.172154C1.8937 0.172154 1.99699 -0.206585 2.13471 -0.740264L2.94384 -3.95955C4.18335 -3.82183 4.92362 -3.30536 4.92362 -2.47902C4.92362 -2.37573 4.92362 -2.30687 4.87197 -2.04864C4.80311 -1.79041 4.80311 -1.58382 4.80311 -1.49774C4.80311 -0.499248 5.45729 0.172154 6.33528 0.172154C7.12719 0.172154 7.54036 -0.550894 7.67809 -0.79191C8.03961 -1.42888 8.26341 -2.39295 8.26341 -2.46181C8.26341 -2.54789 8.19455 -2.61675 8.09126 -2.61675C7.93632 -2.61675 7.9191 -2.54789 7.85024 -2.27244C7.60922 -1.37724 7.2477 -0.172154 6.36971 -0.172154C6.0254 -0.172154 5.8016 -0.344309 5.8016 -0.998496C5.8016 -1.32559 5.87047 -1.70433 5.93933 -1.96256C6.00819 -2.27244 6.00819 -2.28965 6.00819 -2.49624C6.00819 -3.51195 5.09577 -4.08006 3.51195 -4.28664C4.13171 -4.66538 4.75146 -5.33679 4.99248 -5.59502C5.97376 -6.69681 6.64516 -7.2477 7.43707 -7.2477C7.83303 -7.2477 7.93632 -7.14441 8.05683 -7.04112C7.41986 -6.97225 7.17884 -6.52465 7.17884 -6.18034C7.17884 -5.76717 7.50593 -5.62945 7.74695 -5.62945C8.21177 -5.62945 8.62494 -6.0254 8.62494 -6.5763C8.62494 -7.07555 8.22898 -7.59201 7.45429 -7.59201C6.50744 -7.59201 5.73274 -6.92061 4.51045 -5.54337C4.33829 -5.33679 3.70132 -4.6826 3.06435 -4.44158L4.83754 -11.5171Z" id="g1-107" />
<ns0:path d="M5.26792 4.20057C5.26792 4.18335 5.26792 4.14892 5.21628 4.09727C4.42437 3.28815 2.30687 1.08457 2.30687 -4.28664S4.38994 -11.8442 5.23349 -12.705C5.23349 -12.7222 5.26792 -12.7566 5.26792 -12.8083S5.21628 -12.8944 5.14742 -12.8944C4.95805 -12.8944 3.49473 -11.6204 2.65118 -9.72672C1.79041 -7.81581 1.54939 -5.95654 1.54939 -4.30386C1.54939 -3.06435 1.6699 -0.964065 2.70282 1.25673C3.52917 3.04713 4.94083 4.30386 5.14742 4.30386C5.23349 4.30386 5.26792 4.26943 5.26792 4.20057Z" id="g2-40" />
<ns0:path d="M4.52766 -4.28664C4.52766 -5.52616 4.40715 -7.62644 3.37423 -9.84723C2.54789 -11.6376 1.13622 -12.8944 0.929634 -12.8944C0.877987 -12.8944 0.809126 -12.8771 0.809126 -12.7911C0.809126 -12.7566 0.826341 -12.7394 0.843557 -12.705C1.6699 -11.8442 3.77018 -9.65786 3.77018 -4.30386C3.77018 1.06736 1.68711 3.25372 0.843557 4.11449C0.826341 4.14892 0.809126 4.16614 0.809126 4.20057C0.809126 4.28664 0.877987 4.30386 0.929634 4.30386C1.119 4.30386 2.58232 3.02992 3.42587 1.13622C4.28664 -0.774695 4.52766 -2.63396 4.52766 -4.28664Z" id="g2-41" />
<ns0:path d="M2.85776 -0.705833C2.85776 -1.13622 2.51345 -1.41167 2.15193 -1.41167C1.80762 -1.41167 1.4461 -1.13622 1.4461 -0.705833S1.79041 0 2.15193 0C2.49624 0 2.85776 -0.275447 2.85776 -0.705833Z" id="g2-46" />
<ns0:path d="M7.17884 -2.66839H6.86896C6.69681 -1.4461 6.55908 -1.23951 6.49022 -1.13622C6.40414 -0.998496 5.16463 -0.998496 4.92362 -0.998496H1.61825C2.23801 -1.6699 3.44309 -2.89219 4.9064 -4.30386C5.95654 -5.30236 7.17884 -6.47301 7.17884 -8.17733C7.17884 -10.2088 5.56059 -11.3794 3.75297 -11.3794C1.85927 -11.3794 0.705833 -9.70951 0.705833 -8.16012C0.705833 -7.48872 1.20508 -7.40264 1.41167 -7.40264C1.58382 -7.40264 2.10028 -7.50593 2.10028 -8.10847C2.10028 -8.64215 1.65268 -8.79709 1.41167 -8.79709C1.30837 -8.79709 1.20508 -8.77987 1.13622 -8.74544C1.46331 -10.2088 2.46181 -10.9318 3.51195 -10.9318C5.00969 -10.9318 5.99097 -9.74394 5.99097 -8.17733C5.99097 -6.67959 5.11299 -5.38843 4.13171 -4.26943L0.705833 -0.395955V0H6.76567L7.17884 -2.66839Z" id="g2-50" />
<ns0:path d="M11.0695 -5.52616C11.3278 -5.52616 11.586 -5.52616 11.586 -5.81882C11.586 -6.1287 11.2933 -6.1287 11.0007 -6.1287H1.37724C1.08457 -6.1287 0.79191 -6.1287 0.79191 -5.81882C0.79191 -5.52616 1.05014 -5.52616 1.30837 -5.52616H11.0695ZM11.0007 -2.46181C11.2933 -2.46181 11.586 -2.46181 11.586 -2.77169C11.586 -3.06435 11.3278 -3.06435 11.0695 -3.06435H1.30837C1.05014 -3.06435 0.79191 -3.06435 0.79191 -2.77169C0.79191 -2.46181 1.08457 -2.46181 1.37724 -2.46181H11.0007Z" id="g2-61" />
<ns0:path d="M2.63396 -11.9475L0.585325 -11.7581V-11.3105C1.60104 -11.3105 1.75597 -11.2073 1.75597 -10.3809V-1.18787C1.75597 -0.533679 1.68711 -0.447601 0.585325 -0.447601V0C0.998496 -0.0344309 1.75597 -0.0344309 2.18636 -0.0344309C2.63396 -0.0344309 3.39144 -0.0344309 3.80461 0V-0.447601C2.70282 -0.447601 2.63396 -0.516463 2.63396 -1.18787V-11.9475Z" id="g2-108" />
<ns0:path d="M7.14441 -5.23349C7.14441 -6.11148 6.97225 -7.54036 4.94083 -7.54036C3.58081 -7.54036 2.87498 -6.49022 2.61675 -5.8016H2.59953V-7.54036L0.56811 -7.35099V-6.90339C1.58382 -6.90339 1.73876 -6.8001 1.73876 -5.97376V-1.18787C1.73876 -0.533679 1.6699 -0.447601 0.56811 -0.447601V0C0.98128 -0.0344309 1.73876 -0.0344309 2.18636 -0.0344309S3.40866 -0.0344309 3.82183 0V-0.447601C2.72004 -0.447601 2.65118 -0.516463 2.65118 -1.18787V-4.49323C2.65118 -6.07705 3.61524 -7.26492 4.82032 -7.26492C6.09427 -7.26492 6.23199 -6.1287 6.23199 -5.30236V-1.18787C6.23199 -0.533679 6.16313 -0.447601 5.06134 -0.447601V0C5.47451 -0.0344309 6.23199 -0.0344309 6.67959 -0.0344309S7.90189 -0.0344309 8.31506 0V-0.447601C7.21327 -0.447601 7.14441 -0.516463 7.14441 -1.18787V-5.23349Z" id="g2-110" />
</ns0:defs>
<ns0:g id="page1">
<ns0:use x="27.9837" ns1:href="#g1-107" y="74.7198" />
<ns0:use x="42.1106" ns1:href="#g2-61" y="74.7198" />
<ns0:use x="59.2849" ns1:href="#g0-0" y="74.7198" />
<ns0:use x="75.544" ns1:href="#g2-108" y="74.7198" />
<ns0:use x="79.8417" ns1:href="#g2-110" y="74.7198" />
<ns0:use x="88.6364" ns1:href="#g2-40" y="74.7198" />
<ns0:use x="94.7329" ns1:href="#g2-50" y="74.7198" />
<ns0:use x="102.628" ns1:href="#g2-41" y="74.7198" />
</ns0:g>
</ns0:svg>
